img/i_glob.svg

<svg width="25" height="24" viewBox="0 0 25 24" fill="none" xmlns="http://www.w3.org/2000/svg">
<g opacity="0.8">
<path d="M12.5062 15.2826C10.9966 15.2826 9.48767 15.2826 7.97805 15.2826C7.80229 15.2826 7.71823 15.2689 7.69113 15.0509C7.43483 13.0027 7.43763 10.931 7.69947 8.88338C7.71753 8.74222 7.75644 8.70178 7.89955 8.70178C10.9707 8.70544 14.0418 8.70544 17.1129 8.70178C17.2435 8.70178 17.2824 8.73742 17.299 8.86968C17.5637 10.9432 17.5637 13.0412 17.299 15.1147C17.2754 15.3045 17.1782 15.2805 17.0587 15.2805L12.5062 15.2826Z" fill="#464F60" fill-opacity="0.7"/>
<path d="M16.9864 7.06248H16.7328C13.913 7.06248 11.0924 7.05906 8.2726 7.06865C8.03084 7.06865 8.01833 7.01109 8.06835 6.80413C8.45045 5.23552 8.96384 3.72036 9.87461 2.35938C10.2546 1.79129 10.6965 1.27938 11.2758 0.894935C12.0824 0.359729 12.8918 0.351505 13.7073 0.877117C14.2534 1.23004 14.6799 1.70288 15.0433 2.22781C15.9624 3.55041 16.489 5.03747 16.878 6.57593C16.9079 6.72464 16.9426 6.87472 16.9864 7.06248Z" fill="#464F60" fill-opacity="0.7"/>
<path d="M16.9914 16.9265C16.535 18.8364 15.9444 20.6647 14.6891 22.2128C14.3999 22.5777 14.0505 22.8918 13.6554 23.1421C12.8599 23.6348 12.0707 23.6183 11.2933 23.1057C10.4847 22.5726 9.94212 21.8126 9.48152 20.9909C8.79306 19.7636 8.36998 18.441 8.04555 17.0807C7.99414 16.8635 8.13239 16.9286 8.22548 16.9286C9.54498 16.9258 10.8649 16.9258 12.1854 16.9286H16.9914V16.9265Z" fill="#464F60" fill-opacity="0.7"/>
<path d="M21.7598 8.70655C22.6192 8.70655 23.4779 8.71066 24.3365 8.70312C24.4935 8.70312 24.5554 8.7415 24.5963 8.90049C25.1337 10.9296 25.1337 13.0608 24.5963 15.09C24.5547 15.2503 24.4901 15.2866 24.3351 15.286C22.609 15.2809 20.8826 15.2809 19.156 15.286C18.9997 15.286 18.9525 15.2627 18.974 15.092C19.2304 13.0348 19.2304 10.9543 18.974 8.89706C18.9525 8.72368 19.0018 8.70244 19.156 8.70381C20.0251 8.70998 20.8921 8.70655 21.7598 8.70655Z" fill="#464F60" fill-opacity="0.7"/>
<path d="M3.2547 8.70648C4.11406 8.70648 4.97273 8.71059 5.8314 8.70305C5.99882 8.70305 6.04537 8.73252 6.02314 8.90864C5.77043 10.9569 5.77043 13.0279 6.02314 15.0762C6.04051 15.2222 6.03842 15.2818 5.85571 15.2818C4.12031 15.274 2.38515 15.274 0.650213 15.2818C0.502933 15.2818 0.441798 15.2448 0.407062 15.0967C-0.135525 13.0597 -0.135525 10.919 0.407062 8.88191C0.446661 8.73115 0.508493 8.69825 0.652994 8.69963C1.5193 8.7099 2.38839 8.70648 3.2547 8.70648Z" fill="#464F60" fill-opacity="0.7"/>
<path d="M23.9447 7.06258H23.7113C22.1134 7.06258 20.5156 7.05779 18.9212 7.06875C18.7246 7.06875 18.6781 7.00022 18.6433 6.83507C18.2564 5.01975 17.6777 3.27502 16.6759 1.68791C16.2962 1.08488 15.8465 0.527628 15.3358 0.0274658C16.9018 0.357624 18.3816 1.00341 19.6826 1.92433C21.5723 3.24144 22.9825 4.9478 23.9447 7.06258Z" fill="#464F60" fill-opacity="0.7"/>
<path d="M23.9461 16.9265C23.0194 18.9652 21.6723 20.627 19.8737 21.9291C18.5057 22.9251 16.9429 23.6303 15.2844 24C17.2345 22.075 18.0744 19.6923 18.6378 17.1814C18.6802 16.9923 18.7351 16.9197 18.9456 16.921C20.5254 16.9313 22.1051 16.9265 23.6842 16.9265H23.9461Z" fill="#464F60" fill-opacity="0.7"/>
<path d="M9.66006 0C9.59059 0.174747 9.4711 0.240534 9.38217 0.329621C8.37345 1.37605 7.71486 2.62669 7.19104 3.96162C6.82671 4.90141 6.54478 5.8703 6.34835 6.85763C6.32334 6.97892 6.30528 7.0687 6.13021 7.06733C4.47332 7.0591 2.81642 7.06253 1.16022 7.06184C1.12653 7.05863 1.0931 7.05314 1.06018 7.0454C1.84336 5.2948 3.02768 3.74735 4.51996 2.52482C6.01223 1.30228 7.77174 0.438007 9.66006 0Z" fill="#464F60" fill-opacity="0.7"/>
<path d="M1.05591 16.9265H2.07366C3.40057 16.9265 4.72747 16.932 6.05438 16.921C6.26279 16.921 6.32184 16.9895 6.36283 17.1807C6.74979 18.9858 7.3264 20.7216 8.3247 22.2998C8.66577 22.8465 9.07155 23.3512 9.5335 23.8033C9.57449 23.8431 9.63702 23.8719 9.62799 23.9808C8.01835 23.608 6.50128 22.9193 5.16723 21.9558C3.36757 20.6701 1.94831 18.9339 1.05591 16.9265Z" fill="#464F60" fill-opacity="0.7"/>
</g>
</svg>

<svg xmlns="http://www.w3.org/2000/svg" width="25" height="24" fill="none" viewBox="0 0 25 24">
  <path fill="#7D8490" d="M12.507 15.283H7.98c-.176 0-.26-.014-.287-.232A24.568 24.568 0 0 1 7.7 8.883c.019-.14.057-.181.2-.181 3.072.003 6.143.003 9.214 0 .13 0 .17.035.186.168a24.656 24.656 0 0 1 0 6.245c-.024.19-.12.165-.24.165l-4.553.003Zm4.48-8.221h-.254c-2.82 0-5.64-.003-8.46.007-.242 0-.254-.058-.204-.265.382-1.568.895-3.084 1.806-4.445.38-.568.822-1.08 1.401-1.464.807-.535 1.616-.543 2.432-.018.546.353.972.826 1.335 1.35.92 1.323 1.446 2.81 1.835 4.349.03.149.065.299.109.486Zm.005 9.865c-.456 1.91-1.047 3.738-2.302 5.286-.29.365-.639.679-1.034.93-.795.492-1.585.475-2.362-.037-.809-.533-1.351-1.293-1.812-2.115-.688-1.227-1.111-2.55-1.436-3.91-.051-.218.087-.152.18-.152 1.32-.003 2.64-.003 3.96 0h4.806v-.002Zm4.768-8.22c.859 0 1.717.004 2.576-.004.157 0 .219.039.26.197.537 2.03.537 4.16 0 6.19-.042.16-.106.197-.261.196a876.573 876.573 0 0 0-5.18 0c-.156 0-.203-.023-.181-.194a25.052 25.052 0 0 0 0-6.195c-.022-.173.027-.195.182-.193.869.006 1.736.003 2.604.003ZM3.255 8.706c.859 0 1.718.005 2.576-.003.168 0 .214.03.192.206a25.182 25.182 0 0 0 0 6.167c.017.146.015.206-.167.206a564.637 564.637 0 0 0-5.206 0c-.147 0-.208-.037-.243-.185a12.068 12.068 0 0 1 0-6.215c.04-.15.101-.184.246-.182.866.01 1.735.006 2.602.006Zm20.69-1.643h-.234c-1.597 0-3.195-.005-4.79.006-.196 0-.243-.069-.277-.234-.387-1.815-.966-3.56-1.968-5.147a9.14 9.14 0 0 0-1.34-1.66c1.566.33 3.046.975 4.347 1.896 1.89 1.317 3.3 3.024 4.262 5.139Zm.002 9.864c-.927 2.038-2.274 3.7-4.073 5.002A12.37 12.37 0 0 1 15.285 24c1.95-1.925 2.79-4.308 3.354-6.819.042-.189.097-.261.307-.26 1.58.01 3.16.006 4.739.006h.262ZM9.66 0c-.07.175-.189.24-.277.33-1.01 1.046-1.668 2.297-2.192 3.632a17.41 17.41 0 0 0-.842 2.896c-.025.12-.043.21-.218.21-1.657-.009-3.314-.005-4.97-.006a.746.746 0 0 1-.1-.017 12.384 12.384 0 0 1 3.46-4.52A12.605 12.605 0 0 1 9.66 0ZM1.057 16.927h1.017c1.327 0 2.654.005 3.981-.006.209 0 .268.069.309.26.387 1.805.963 3.54 1.961 5.119a8.111 8.111 0 0 0 1.21 1.503c.04.04.103.069.094.178a12.396 12.396 0 0 1-4.461-2.025 12.351 12.351 0 0 1-4.111-5.03Z"/>
</svg>
